!!!!SEGMENT: pl-wtm--1124-3622--001-002_rozycki-ludomir--5-preludes-op-2-no-2.krn
!!!cenid: 19xx:129
!!!COM: Różycki, Ludomir
!!!COM-rismID: pe50045573
!!!CDT: 1883-1953
!!!CNT: Polish
!!!GTL: 5 Préludes op. 2
!!!OTL: No. 2.
!!!OMV: 002
!!!PDT: 1924
!!!AGN: Secular; Prelude
!!!YEC: Copyright 2022 Narodowy Instytut Fryderyka Chopina (https://polishscores.org)
!!!YEM: License CC-BY-4.0 (https://creativecommons.org/licenses/by/4.0)
!!!SMS-siglum: PL-Wtm
!!!SMS-shelfmark: 1124 3622
!!!SMS-variant:
!!!SMS-altvar:
!!!SMS-shelfwork: 001-002 G
!!!NIFC-rismSourceID: 1001214520
!!!NIFC-rismChildID: 1001214520
!!!NIFC-islandoraID: pl-wtm:72703
!!!URL-pdf-islandora: https://repozytorium.nifc.pl/islandora/object/pl-wtm%3A72703/datastream/PDF/view
!!!URL-scan: https://polish.musicsources.pl/pl/lokalizacje/galeria/druki-muzyczne/18454/4 @EN{Scan on Polish Music Sources Website} @PL{Skany w portalu Dziedzictwo Muzyki Polskiej w otwartym dostępie}
!!!IIIF:
!!!ONB-nifc:
!!!AIN: 1 piano
!!!key: a
**kern	**fing	**kern	**fing	**dynam
*part1	*	*part1	*	*part1
*staff2	*	*staff1	*	*staff1/2
*group1	*	*group1	*	*
*ICklav	*	*ICklav	*	*
*Ipiano	*	*Ipiano	*	*
*I"Piano.	*	*I"Piano.	*	*
*	*	*I'	*	*
*clefF4	*	*clefG2	*	*
*k[]	*	*k[]	*	*
*a:	*	*a:	*	*
*M3/4	*	*M3/4	*	*
=1	=1	=1	=1	=1
*ped	*below	*	*	*
!!LO:TX:a:B:t=Andante doloroso.
!!LO:TX:a:B:t=M.M. [quarter]=66
!LO:TX:b:i:t=Con ped.	!	!	!	!
(8eL 8c 8A'\	4	2.r	.	pp
8e 8c 8A'\	.	.	.	.
8e 8c 8A'\	.	.	.	.
8e 8c 8A'\	.	.	.	.
8e 8c 8A'\	.	.	.	.
8eJ 8c 8A'\)	.	.	.	.
=2	=2	=2	=2	=2
8eL 8c 8A\	.	(>4.f#X/	2	.
8e 8c 8A\	.	.	.	.
8e 8c 8A\	.	.	.	<
8e 8c 8A\	.	8g#X/L	.	.
*Xped	*	*	*	*
.	.	.	.	[
8e 8c 8A\	.	8a/	.	>
8eJ 8c 8A\	.	[8f#/J	.	]]
=3	=3	=3	=3	=3
*ped	*	*	*	*
8eL 8B 8E\	.	8f#/L]	.	<
8e 8B 8E\	.	8g#X/J	.	[
8B 8E\	3	2e/)	.	>
8B 8E\	.	.	.	]
8B 8E 8D\	4	.	.	.
*Xped	*	*	*	*
8BJ 8E 8D\	.	.	.	.
=4	=4	=4	=4	=4
*	*	*^	*	*
*ped	*	*	*	*	*
8F#XL 8C\	2 5	(4.a/	8e\L	1 3	.
8F# 8C\	.	.	8e\	.	.
8F# 8C\	2 4	.	8e\	.	.
8F# 8C\	.	8b/L	8e\	.	<
*ped	*	*	*	*	*
8F# 8BB\	.	8cc/	8d#X\	.	[>
8F#J 8BB\	.	8a/J	8d#\J	1 2	]
*Xped	*	*	*	*	*
!!LO:LB:g=original
=5	=5	=5	=5	=5	=5
*^	*	*	*	*	*
*ped	*	*	*	*	*	*
8A::/L	2.BB:: 2.EE:\	.	4b/	8e\L	1 3	.
8A/	.	.	.	8e\	.	.
8G#X/	.	1	2ee/)	8e\	.	.
8G#/	.	.	.	8e\	.	.
8G#/	.	.	.	8e\	.	.
8G#/J	.	.	.	8e\J	.	.
*v	*v	*	*	*	*	*
=6	=6	=6	=6	=6	=6
*ped	*	*	*	*	*
(8D\L	.	(4.gg 4.ee/	2a\	1 3 5	mf
8A\	2	.	.	.	.
*Xped	*	*	*	*	*
8f\J)	.	.	.	.	.
8r	.	8ffL 8dd/	.	2 4	.
(4G\	3	8dd 8b/	4f\	3	.
.	.	8ffJ 8dd/)	.	5	.
=7	=7	=7	=7	=7	=7
*ped	*	*	*	*	*
8C\L	.	(4.ff 4.dd/	2g\	.	.
8G\	2	.	.	.	.
8e\J)	.	.	.	.	.
*Xped	*	*	*	*	*
8r	.	8eeL 8cc/	.	.	.
4F\	3	8cc 8a/	4e\	.	.
.	.	8eeJ 8cc/)	.	.	.
=8	=8	=8	=8	=8	=8
*	*	*	*^	*	*
*ped	*	*	*	*	*	*
(8DD\L	.	(4.ee 4.cc/	2.f\	4.ryy	1 3 5	>
8AA\	2	.	.	.	.	.
8F\	1	.	.	.	.	.
*Xped	*	*	*	*	*	*
8e\	2	8dd/L	.	4b-X\	.	.
8d\	.	8ff/	.	.	.	.
8c\J)	.	8a/J	.	8a\	.	.
*	*	*	*v	*v	*	*
=9	=9	=9	=9	=9	=9
*ped	*	*	*	*	*
(8EE/L	.	4.a/	4.f#X\	2 4	.
8BB/	2	.	.	.	.
8c/	1	.	.	.	.
*Xped	*	*	*	*	*
8B/	.	8g#X/)	4.e\	.	.
8A/	.	4b/	.	.	.
8G#X/J)	.	.	.	.	.
*	*	*v	*v	*	*
!!LO:LB:g=original
=10	=10	=10	=10	=10
*ped	*	*	*	*
(8eL 8c 8A'\	.	(>4.f#X/	2	.
8e 8c 8A'\	.	.	.	.
8e 8c 8A'\	.	.	.	.
*Xped	*	*	*	*
8e 8c 8A'\	.	8g#X/L	.	.
8e 8c 8A'\	.	8a/	.	.
8eJ 8c 8A'\)	.	[8f#/J	.	.
=11	=11	=11	=11	=11
*ped	*	*	*	*
8eL 8B 8E\	.	8f#X/L]	.	.
8e 8B 8E\	.	8g#X/J	.	.
8B 8E\	3	2e/)	.	.
8B 8E\	.	.	.	.
8B 8E 8D\	4	.	.	.
*Xped	*	*	*	*
8BJ 8E 8D\	.	.	.	.
=12	=12	=12	=12	=12
*	*	*^	*	*
*ped	*	*	*	*	*
8F#XL 8C\	2 5	(4.a/	8e\L	1 3	.
8F# 8C\	.	.	8e\	.	.
8F# 8C\	2 4	.	8e\	.	.
8F# 8C\	.	8b/L	8e\	.	.
*ped	*	*	*	*	*
8F# 8BB\	.	8cc/	8d#X\	.	.
*Xped	*	*	*	*	*
8F#J 8BB\	.	8a/J	8d#\J	1 2	.
=13	=13	=13	=13	=13	=13
*^	*	*	*	*	*
*ped	*	*	*	*	*	*
8A::/L	2.BB:: 2.EE::\	.	4b/	8e\L	.	.
8A/	.	.	.	8e\	.	.
8G#X/	.	1	2ee/)	8e\	.	.
8G#/	.	.	.	8e\	.	.
8G#/	.	.	.	8e\	.	.
8G#/J	.	.	.	8e\J	.	.
*v	*v	*	*	*	*	*
*	*	*v	*v	*	*
=14	=14	=14	=14	=14
*ped	*	*	*	*
(<8CC/L	.	(>4.ee 4.cc 4.e/	1 3 5	mf
8GG/	2	.	.	.
8E/J	.	.	.	.
8bL 8B\	.	8dd#XL 8b/	4	.
8a 8A\	.	8b 8g/	.	.
8gJ 8G\)	.	8dd#J 8b/)	.	.
!!LO:LB:g=original
=15	=15	=15	=15	=15
*ped	*	*	*	*
(8CC/L	.	(4.ee 4.cc 4.e/	.	.
8GG/	.	.	.	.
8E/J	.	.	.	.
!	!	!	!	!LO:HP:a:t=crescendo poco a poco
8bL 8B\	.	8dd#XL 8b/	.	<
8a 8A\	.	8b 8g/	.	.
8gJ 8G\)	.	8dd#J 8b/)	.	.
=16	=16	=16	=16	=16
*ped	*	*	*	*
(8CC/L	.	(4.gg 4.ee 4.g\	4 5	f
8GG/	.	.	.	.
8E/J	.	.	.	.
8bL 8B\	.	8ff#XL 8dd#X 8f#X/	3 5	.
!	!	!LO:SIC:v:o=8dd# 8b 8d/	!	!
8a 8A\	.	8dd# 8b 8d#/	2 4	.
8g#XJ 8G#X\)	.	8ff#J 8dd# 8f#/)	3 5	[[
=17	=17	=17	=17	=17
*ped	*	*	*	*
(8CC/L	.	(4.gg 4.ee 4.g\	4	.
8GG/	.	.	.	.
8E/J	.	.	.	.
8bL 8B\	.	8ff#XL 8dd#X 8f#X/	.	.
!	!	!LO:SIC:v:o=8dd# 8b 8d/	!	!
8a 8A\	.	8dd# 8b 8d#/	.	.
8g#XJ 8G#X\)	.	8ff#J 8dd# 8f#/)	.	.
=18	=18	=18	=18	=18
*ped	*	*	*	*
(8CC^>/L	.	2gg 2ee 2g\	.	f <
8GG/	.	.	.	.
8E/	.	.	.	.
8C^>/	5	.	.	.
8A/	.	4aa 4ff#X 4ee 4a\	.	[
8e/J)	.	.	.	.
=19	=19	=19	=19	=19
*ped	*	*	*	*
(8BBB/L	.	(4.bb 4.gg 4.b\	4 5	.
8GG/	2	.	.	.
8E/J	.	.	.	.
*clefG2	*	*	*	*
8eeL 8e/	.	8aa#XL 8ff#X 8a#X\	3 5	.
!	!	!	!	!LO:HP:a=2
8dd 8d/	.	8ff# 8f#X\	4	>
8ccJ 8c/)	.	8aa#J 8ff# 8a#\)	3 5	]
*clefF4	*	*	*	*
!!LO:LB:g=original
=20	=20	=20	=20	=20
*ped	*	*	*	*
(8BBB/L	.	(4.bb 4.gg 4.b\	.	.
8GG/	.	.	.	.
8E/J	.	.	.	.
*clefG2	*	*	*	*
8eeL 8e/	.	8aa#XL 8ff#X 8a#X\	.	.
!	!	!	!	!LO:HP:a=2
8dd 8d/	.	8ff# 8f#X\	.	>
8ccJ 8c/)	.	8aa#J 8ff# 8a#\)	.	]
*clefF4	*	*	*	*
=21	=21	=21	=21	=21
*ped	*	*	*	*
(8BBB/L	.	2bb 2gg 2b\	.	<
8GG/	.	.	.	.
8E/	.	.	.	.
8BB/	.	.	.	[
8G/	.	4ccc#X 4bb 4gg 4cc#X\	.	.
8e/J)	.	.	.	.
=22	=22	=22	=22	=22
*ped	*	*	*	*
(8BBB/L	.	4.ddd#X 4.dd#X\	.	ff
8FF#X/	2	.	.	.
8D#X/	1	.	.	.
8F#X/	3	8eeeL 8ee\	.	.
8d#X/J)	.	8fff#X 8ff#X\	.	.
8r	.	[8ddd#J [8dd#\	.	.
=23	=23	=23	=23	=23
*	*	*^	*	*
*ped	*	*	*	*	*
(8BBB/L	.	8ddd#]L 8dd#\]	4.ryy	.	.
8GG/	2	8eeeJ 8ee\	.	.	.
8E/	1	2ccc#X 2cc#X\	.	.	.
8G/	3	.	8dd#XL 8d#X/	.	.
8e/J)	.	.	8ee 8e/	.	.
8r	.	.	[>8cc#J [8c#X/	.	.
=24	=24	=24	=24	=24	=24
*ped	*	*	*	*	*
(8BBB/L	.	8cc#]L 8c#/]	4.ryy	.	.
8FF#X/	.	8dd#XJ 8d#X/	.	.	.
8D#X/	1	2b 2B/	.	.	.
8F#X/	3	.	8ggg#XL 8gg#X\	.	.
8d#X/J)	.	.	8aaa 8aa\	.	.
8r	.	.	[>8fff#XJ [8ff#X\	.	.
!!LO:LB:g=original
=25	=25	=25	=25	=25	=25
*ped	*	*	*	*	*
(8BBB/L	.	8fff#X]L 8ff#X\]	8ryy	.	.
8GG/	.	8gggnJ 8ggn\	4ryy	.	.
8E/	1	2eee 2ee\	.	.	.
8G/	3	.	8ff#L 8f#X/	.	.
8e/J)	.	.	8gg 8g/	.	.
8r	.	.	[>8eeJ [8e/	.	.
=26	=26	=26	=26	=26	=26
*ped	*	*	*	*	*
(8BBB/L	.	8ee]L 8e/]	4.ryy	.	.
8FF#X/	.	8ff#XJ 8f#X/	.	.	.
8D#X/	1	2dd#X 2d#X/	.	.	.
8F#X/	3	.	8aaa#XL 8aa#X\	.	.
8d#X/J)	.	.	8bbb 8bb\	.	.
8r	.	.	[>8gggJ [8gg\	.	.
=27	=27	=27	=27	=27	=27
*ped	*	*	*	*	*
(8BBB/L	.	8ff#XL 8f#X/	4.ggg] 4.gg\]	.	.
8FF#X/	.	8eeJ 8e/	.	.	.
8D#X/	.	2dd#X 2d#X/	.	.	.
8F#X/	.	.	8aaa#XL 8aa#X\	.	.
8d#X/J)	.	.	8bbb 8bb\	.	.
8r	.	.	[>8gggJ [8gg\	.	.
=28	=28	=28	=28	=28	=28
*ped	*	*	*	*	*
(8BBB/L	.	8ff#XL 8f#X/	4.ggg] 4.gg\]	.	.
8FF#X/	.	8eeJ 8e/	.	.	.
8D#X/	.	2dd#X 2d#X/	.	.	.
8F#X/	.	.	8aaa#XL 8aa#X\	.	.
8d#X/J)	.	.	8bbb 8bb\	.	.
8r	.	.	[>8gggJ [8gg\	.	.
*	*	*v	*v	*	*
!!LO:PB:g=original
=29	=29	=29	=29	=29
*^	*	*	*	*
*ped	*	*	*	*	*
*Xbrackettup	*Xtuplet	*	*	*	*
!LO:TUP:a:problem:klamra łukowa	!	!	!	!	!
12BB 12BBB/	12ryy	.	4.ggg] 4.gg\]	.	.
*clefG2	*	*	*	*	*
12cc/L	6ee 6e\	.	.	.	.
12b/J	.	.	.	.	.
4a/	4ff#X 4f#X\	1 4 5	.	.	.
.	.	.	8aaa#XL 8aa#X\	.	.
8ee/L	4gg 4g\	.	8bbb 8bb\	.	.
8dd/J	.	.	[8gggJ [8gg\	.	.
=30	=30	=30	=30	=30	=30
4cc/	4aa 4a\	1 4 5	4.ggg] 4.gg\]	.	.
8gg/L	4bb 4b\	.	.	.	.
8ff#X/J	.	.	8aaa#XL 8aa#X\	.	.
4ee/	4ccc 4cc\	1 4 5	8bbb 8bb\	.	.
.	.	.	8gggJ 8gg\	.	.
*v	*v	*	*	*	*
*clefF4	*	*	*	*
=31	=31	=31	=31	=31
*ped	*	*8va	*	*
8AA 8EE 8AAA/	.	8cccc#X 8aaa 8eee 8ccc#X\	.	fff
*Xped	*	*X8va	*	*
8r	.	8r	.	.
8r	.	8r	.	.
*ped	*	*	*	*
!!LO:TX:a:i:t=più Lento
!	!	!	!	!LO:DY:rj
4c 4A\	1 2	4ccn 4a 4e/	.	mf <
[8c [8A\	.	[8cc [>8a [8e/	.	[
=32	=32	=32	=32	=32
!	!	!LO:N:vis=4	!	!
8c] 8A\]	.	8cc] 8a] 8e/]	.	.
4c 4A 4G\	3	4cc 4a 4e/	.	.
*Xped	*	*	*	*
4c 4A 4G\	.	4cc 4a 4e/	.	>
*ped	*	*	*	*
8c 8A 8F#X\	4	8cc 8a 8e/	.	]
=33	=33	=33	=33	=33
*8ba	*	*	*	*
4AAAA/	.	4.r	.	.
*X8ba	*	*	*	*
*Xped	*	*	*	*
8r	.	.	.	.
*ped	*	*clefF4	*	*
4C 4AA/	1 2	4c 4A 4E\	.	<
[8C [8AA/	.	[8c [8A [8E\	.	.
!!LO:LB:g=original
=34	=34	=34	=34	=34
8C] 8AA/]	.	8c] 8A] 8E\]	.	.
4C 4AA 4GG/	.	4c 4A 4E\	.	[
*Xped	*	*	*	*
4C 4AA 4GG/	.	4c 4A 4E\	.	>
*ped	*	*	*	*
8C 8AA 8FF#X/	.	8c 8A 8E\	.	]
=35	=35	=35	=35	=35
2AA 2EE 2AAA/	.	2c 2A 2E~\	.	>
*8ba	*	*	*	*
*Xped	*	*	*	*
.	.	.	.	.
4DD 4AAA 4DDD/	.	4c 4A 4F~\	.	]
*X8ba	*	*	*	*
=36	=36	=36	=36	=36
*ped	*	*	*	*
2AA 2EE 2AAA/	.	2c 2A 2E~\	.	>
*8ba	*	*	*	*
*ped	*	*	*	*
4DD 4AAA 4DDD/	.	4c 4A 4F#X~\	.	]
*X8ba	*	*	*	*
=37	=37	=37	=37	=37
*ped	*	*	*	*
2.AA 2.EE 2.AAA/	.	2.c 2.A 2.E\	.	mf
=38	=38	=38	=38	=38
*8ba	*	*	*	*
2.AAA 2.EEE 2.AAAA/	.	2.c 2.A 2.E 2.C;\	.	pp
*X8ba	*	*clefG2	*	*
*Xped	*	*	*	*
=39	=39	=39	=39	=39
*^	*	*	*	*^
*ped	*	*	*	*	*	*
!!LO:TX:a:B:t=Tempo I.
(4c/	16c\LL	1	(>4.f#X/	.	mf	p
.	16E\	2	.	.	.	.
.	16AA\	5	.	.	.	.
.	16C\JJ	1	.	.	.	.
*tuplet	*	*	*	*	*	*
!LO:TUP:b	!	!	!	!	!	!
12EE/L	2ryy	2	.	.	.	.
12AAA/J)	.	5	.	.	.	.
.	.	.	8g#X/L	.	.	.
12r	.	.	.	.	.	.
(12c\L	.	1	8a/	.	.	.
12E\	.	.	.	.	.	,
.	.	.	[8f#X/J	.	.	.
*Xped	*	*	*	*	*	*
12AA\J)	.	.	.	.	.	.
*	*	*	*	*	*v	*v
!!LO:LB:g=original
=40	=40	=40	=40	=40	=40
*ped	*	*	*	*	*
!	!	!	!LO:TX:t=P:problem:brak zakończenia łuku	!	!
(4d/	16d\LL	5	(8f#/L])	.	.
.	16E\	2	.	.	.
.	16AA\	5	8g#X/J	.	.
.	16D\JJ	1	.	.	.
!LO:TUP:b	!	!	!	!	!
12EE/L	4ryy	2	2e/)	.	.
12AAA/J)	.	.	.	.	.
12r	.	.	.	.	.
(4d/	12d\L	.	.	.	.
.	12E\	.	.	.	.
.	12AA\J)	.	.	.	.
=41	=41	=41	=41	=41	=41
*ped	*	*	*	*	*
!	!	!	!LO:TX:t=P:problem:łuczek nad palcowaniem	!	!
(4c/	16c\LL	.	(4.a/	31	.
.	16E\	.	.	.	.
.	16AA\	.	.	.	.
.	16C\JJ	.	.	.	.
!LO:TUP:b	!	!	!	!	!
12EE/L	4ryy	.	.	.	.
12AAA/J)	.	.	.	.	.
.	.	.	8b/L	.	.
12r	.	.	.	.	.
*ped	*	*	*	*	*
*Xtuplet	*	*	*	*	*
(4d#X^/	12d#\L	1	8cc/	.	.
.	12E\	2	.	.	.
.	.	.	8a/J	.	.
.	12AA\J)	.	.	.	.
=42	=42	=42	=42	=42	=42
*ped	*	*	*	*	*
(4d^/	16dn\LL	1	2b\	.	.
.	16E\	2	.	.	.
.	16AA\	5	.	.	.
.	16D\JJ	1	.	.	.
*tuplet	*	*	*	*	*
!LO:TUP:b	!	!	!	!	!
12EE/L	4ryy	.	.	.	.
12AAA/J)	.	.	.	.	.
12r	.	.	.	.	.
*ped	*Xtuplet	*	*	*	*
(4c#X^/	12c#\L	1	4ee\)	5	.
.	12E\	.	.	.	.
.	12AA\J)	.	.	.	.
=43	=43	=43	=43	=43	=43
*ped	*	*	*	*	*
(4c/	16cn\LL	1	(4.aa\	4	.
.	16E\	.	.	.	.
.	16AA\	.	.	.	.
.	16C\JJ	.	.	.	.
*tuplet	*	*	*	*	*
!LO:TUP:b	!	!	!	!	!
12EE/L	4ryy	.	.	.	.
12AAA/J)	.	.	.	.	.
.	.	.	8ee\L	1	.
12r	.	.	.	.	.
*ped	*Xtuplet	*	*	*	*
(4B/	12B\L	.	8ee\	2	.
.	12E\	.	.	.	.
.	.	.	(8qgg/	4	.
.	.	.	8ff\J)	3	.
.	12AA\J)	.	.	.	.
!!LO:LB:g=original
=44	=44	=44	=44	=44	=44
*	*	*	*^	*	*
*ped	*	*	*	*	*	*
!	!	!	!LO:TX:t=P:problem:łuczek nad palcowaniem	!	!	!
(4d^/	16d\LL	.	4.ee\	2ryy	25	.
.	16E\	.	.	.	.	.
.	16AA\	.	.	.	.	.
.	16D\JJ	.	.	.	.	.
*tuplet	*	*	*	*	*	*
!LO:TUP:b	!	!	!	!	!	!
12EE/L	4ryy	.	.	.	.	.
12AAA/J)	.	.	.	.	.	.
.	.	.	8dd/L	.	4	.
12r	.	.	.	.	.	.
*Xtuplet	*	*	*	*	*	*
(12d\L	4ryy	.	8cc/	4g#X\	1 3	pp
12E\	.	.	.	.	.	.
.	.	.	8b/J)	.	.	.
12AA\J)	.	.	.	.	.	.
=45	=45	=45	=45	=45	=45	=45
*ped	*	*	*	*	*	*
(4c^/	16c\LL	.	(4.ee/	2gn\	1 5	.
.	16E\	.	.	.	.	.
.	16AA\	.	.	.	.	.
.	16C\JJ	.	.	.	.	.
*tuplet	*	*	*	*	*	*
!LO:TUP:b	!	!	!	!	!	!
12EE/L	4ryy	.	.	.	.	.
12AAA/J)	.	.	.	.	.	.
.	.	.	8cc/L	.	4	.
12r	.	.	.	.	.	.
*	*Xtuplet	*	*	*	*	*
(4c/	12c\L	.	8b/	4f#X\	.	.
.	12E\	.	.	.	.	.
.	.	.	8a/J	.	.	.
.	12AA\J)	.	.	.	.	.
*	*	*	*v	*v	*	*
=46	=46	=46	=46	=46	=46
*ped	*	*	*	*	*
(4d^/	16d\LL	.	2b 2fn/	1 3	.
.	16E\	.	.	.	.
.	16AA\	.	.	.	.
.	16D\JJ	.	.	.	.
*tuplet	*	*	*	*	*
!LO:TUP:b	!	!	!	!	!
12EE/L	4ryy	.	.	.	.
12AAA/J)	.	.	.	.	.
12r	.	.	.	.	.
*ped	*Xtuplet	*	*	*	*
!	!	!	!LO:TX:b:i:t=rall.	!	!
(4c^/	12c\L	.	4g#X 4e/)	1 2	.
.	12E\	.	.	.	.
.	12AA\J)	.	.	.	.
=47	=47	=47	=47	=47	=47
*ped	*	*	*	*	*
(4B/	16B\LL	.	4a 4d#X~/	1 3	mf
.	16E\	.	.	.	.
.	16AA\	.	.	.	.
.	16BB\JJ	.	.	.	.
*tuplet	*	*	*	*	*
!LO:TUP:b	!	!	!	!	!
12EE/L	4ryy	.	8f#X'/	2	pp
12AAA/J)	.	.	.	.	.
.	.	.	8r	.	.
12r	.	.	.	.	.
4r	4ryy	.	8ff#X'\	5	.
.	.	.	8r	.	.
!!LO:LB:g=original
=48	=48	=48	=48	=48	=48
*ped	*	*	*	*	*
(4c/	16c\LL	.	4a#X 4e~/	1 3	mf
.	16E\	.	.	.	.
.	16AA\	.	.	.	.
.	16C\JJ	.	.	.	.
!LO:TUP:b	!	!	!	!	!
12EE/L	2ryy	.	8g'/	2	pp
12AAA/J)	.	.	.	.	.
.	.	.	8r	.	.
12r	.	.	.	.	.
4r	.	.	8gg'\	5	.
.	.	.	8r	.	.
*Xped	*	*	*	*	*
=49	=49	=49	=49	=49	=49
*ped	*	*	*	*	*
!	!	!	!LO:N:vis=2	!	!
(4d/	16d\LL	.	4b 4f#X/	3	mf
.	16E\	.	.	.	.
.	16AA\	.	.	.	.
.	16D\JJ	.	.	.	.
!LO:TUP:b	!	!	!	!	!
12EE/L	2ryy	.	8g#X'/	.	pp
12AAA/J)	.	.	.	.	.
.	.	.	8r	.	.
12r	.	.	.	.	.
4r	.	.	8gg#X'\	.	.
.	.	.	8r	.	.
*Xped	*	*	*	*	*
=50	=50	=50	=50	=50	=50
*ped	*	*	*	*	*
!	!	!	!LO:N:vis=2	!	!
(4d/	16d\LL	.	4b 4f#X/	.	.
.	16E\	.	.	.	.
.	16AA\	.	.	.	.
.	16D\JJ	.	.	.	.
!LO:TUP:b	!	!	!LO:TX:b:i:t=rall.	!	!
12EE/L	2ryy	.	8g#X'/	.	.
12AAA/J)	.	.	.	.	.
.	.	.	8r	.	.
12r	.	.	.	.	.
4r	.	.	8gg#X'\	.	.
.	.	.	8r	.	.
*Xped	*	*	*	*	*
=51	=51	=51	=51	=51	=51
*ped	*	*	*	*	*
!	!	!	!	!	!LO:DY:t=%s a tempo doloroso
(4c/	16c\LL	.	(4.aa: 4.a:\	.	f
.	16E\	.	.	.	.
.	16AA\	.	.	.	.
.	16C\JJ	.	.	.	.
!LO:TUP:b	!	!	!	!	!
12EE/L	2ryy	.	.	.	.
12AAA/J)	.	.	.	.	.
.	.	.	8ee\L	.	.
12r	.	.	.	.	.
4r	.	.	8ee\	.	.
.	.	.	(8qgg/	.	.
.	.	.	8ff\J)	.	.
*Xped	*	*	*	*	*
!!LO:LB:g=original
=52	=52	=52	=52	=52	=52
*	*	*	*^	*	*
*ped	*	*	*	*	*	*
(4c/	16c\LL	.	[2ee/	(4.f#X\	1 5	.
.	16E\	.	.	.	.	.
.	16AA\	.	.	.	.	.
.	16C\JJ	.	.	.	.	.
!LO:TUP:b	!	!	!	!	!	!
12EE/L	2ryy	.	.	.	.	.
12AAA/J)	.	.	.	.	.	.
.	.	.	.	8g#X\	.	.
*Xped	*	*	*	*	*	*
12r	.	.	.	.	.	.
*	*	*	*	*	*below	*
4r	.	.	8ee/L]	4a\)	1	.
*	*	*	*	*	*above	*
.	.	.	(<8qdd/	.	4	.
.	.	.	[8cc/J))	.	3	.
=53	=53	=53	=53	=53	=53	=53
*ped	*	*	*	*	*below	*
!	!	!	!LO:TX:b:i:t=smorzando	!	!	!
(4c/	16c\LL	.	(2.cc/]	(2f#X\	1	.
.	16E\	.	.	.	.	.
.	16AA\	.	.	.	.	.
.	16C\JJ	.	.	.	.	.
!LO:TUP:b	!	!	!	!	!	!
12EE/L	2ryy	.	.	.	.	.
12AAA/J)	.	.	.	.	.	.
*Xped	*	*	*	*	*	*
12r	.	.	.	.	.	.
4r	.	.	.	4g#X\	.	.
=54	=54	=54	=54	=54	=54	=54
*ped	*	*	*	*	*above	*
!	!LO:TUP:a	!	!	!	!	!
(4c/	12c\L	.	2.a/)	2.a\)	1	.
.	12E\	.	.	.	.	.
.	12AA\J)	.	.	.	.	.
4r	4ryy	.	.	.	.	.
(12C/L	4ryy	.	.	.	.	.
!LO:TX:a:i:t=rall.	!	!	!	!	!	!
12EE/	.	.	.	.	.	.
[12AAA/J)	.	.	.	.	.	.
*v	*v	*	*	*	*	*
*	*	*v	*v	*	*
=55	=55	=55	=55	=55
2.AAA/]	.	2.r	.	.
*Xped	*	*	*	*
==	==	==	==	==
*-	*-	*-	*-	*-
!!!system-decoration: {(g1)}
!!!RDF**kern: i = editorial accidental
!!!RDF**kern: > = above
!!!RDF**kern: < = below
!!!RDF**kern: N = linked
!!!RDF**dynam: > = "dim.", fontstyle= "italic"
!!!ENC: Andrzej Gręziak
!!!EED: Katarzyna Serwa
!!!END: 2023-10-11
!!!EEV: 2023-10-23
